X:1
T:Meinhold, 78.78.77
T:Meinhold, 78.78.77
T:Gesangbuch (Lüneburg, German
T:Public Domain Courtesy of the Cyber Hymnal™
C:Gesangbuch (Lüneburg, German
Z:Public Domain
Z:Courtesy of the Cyber Hymnal™
%%score ( 1 2 ) ( 3 4 )
L:1/8
Q:1/4=112
M:4/4
K:F
V:1 treble 
V:2 treble 
V:3 bass 
V:4 bass 
V:1
 [FA]2 [FA]2 [FA]2 [Fc]2 | [FB]2 [EB]2 [FA]4 | [FA]2 [FA]2 [EG]2 [FA]2 | [FB]2 [FA]2 [EG]4 | %4
 F4 [FA]2 [FA]2 | [FA]2 [Fc]2 [FB]2 [EB]2 | [FA]4 [FA]2 [FA]2 | [EG]2 [FA]2 [FB]2 [FA]2 | %8
 [EG]4 F4 | [FA]2 [FA]2 [CG]2 [CG]2 | [CF]2 [=B,F]2 [CE]4 | [Dd]2 [Fc]2 [EB]2 [FA]2 | %12
 [FG]2 [EG]2 F4 x |] %13
V:2
 x8 | x8 | x8 | x8 | F4 x4 | x8 | x8 | x8 | x4 F4 | x8 | x8 | x8 | x4 F4 x |] %13
V:3
 [F,C]2 [F,C]2 [F,C]2 [A,C]2 | [G,D]2 [G,B,]2 [F,C]4 | [F,C]2 [F,C]2 [C,C]2 [F,C]2 | %3
 [B,,D]2 [F,C]2 (C2 B,2) | [F,A,]4 [F,C]2 [F,C]2 | [F,C]2 [A,C]2 [G,D]2 [G,B,]2 | %6
 [F,C]4 [F,C]2 [F,C]2 | [C,C]2 [F,C]2 [B,,D]2 [F,C]2 | (C2 B,2) [F,A,]4 | %9
 [F,C]2 [F,C]2 [E,C]2 [E,G,]2 | [D,A,]2 [D,F,]2 [C,G,]4 | [B,,B,]2 [A,,A,C]2 [G,,G,C]2 [F,,F,C]2 | %12
 C3 z B, [F,A,]4 |] %13
V:4
 x8 | x8 | x8 | x4 C,4 | x8 | x8 | x8 | x8 | C,4 x4 | x8 | x8 | x8 | C,2 C,2 x5 |] %13

